X:187
T: Die Mordeltern
N: Q0085c
O: Mitteleuropa, Schweiz
R: Ballade, Habgier, Mord, Reue, Selbstmord
M: 3/4
L: 1/8
K: G
GFG | A2A2Bc | d2z
GFG | A2A2Bc | d2z
GGG | e2e2dB | g
dBG | Add2cF | G2z
GGG | e2e2dB | g
dBG | Add2cF | G2z

@@@ Tune index: 1242
